X:1
T:Du grand plaisir
T:Mathias Sohier
T:Source : Second livre contenant 25 chansons nouvelles à 4 parties---Paris---P.Attaignant---1536. Editor : André Vierendeels (23/12/17). Notes : Original clefs : C1, C3, C3, F3 Original note values have been halved Editorial accidentals above the staff
T:Du grand plaisir
T:©
T:©
C:Mathias Sohier
Z:©
%%score [ 1 [ 2 3 ] 4 ]
L:1/8
Q:1/4=120
M:2/2
K:F
V:1 treble nm="Soprano" snm="S"
V:2 treble-8 nm="Tenor 1" snm="T 1"
V:3 treble-8 nm="Tenor 2" snm="T 2"
V:4 bass nm="Bass" snm="B"
V:1
 z4 G4 | G2 G2 D2 D2 | F4 G4 | F2 B2 A2 G2- | G2 F2 G4 | z2 G2 G2 G2 | D4 z2 A2 | A2 F2 GABG | %8
w: Du|grand plai- sir que|le cueur|a _ _ _|_ re- ceeu,|au lieu sans|plus où|il faict re- * * *|
 A2 B4 A2 | B2 B,C DEFG | AB c2- cB B2- | B2 A2 B4- | B8 | z2 d2 c2 B2 | A2 G2 B2 c2 | %15
w: * si- *|den- * * * * * *||* * ce,|_|en doibt il|es- tre es- loi-|
 A2 B2 cB d2 | c2 B4 AG | F8 | z2 G2 G2 G2 | D4 F4 | G4 F2 B2 | A2 G4 F2 | G2 G2 G2 G2 | D4 F4 | %24
w: gné sans of- * *|* fen- * *|ce,|ie dis que|non et|ne suys pas|de- * *|ceu, ie dis que|non et|
 G4 F2 B2 | A2 G4 F2 | G8 |] %27
w: ne suys pas|de- * *|ceu.|
V:2
 c4 c2 c2 | G2 B4 AG | A2 d2 d2 c2 | d2 f3 edc | d6 e2- | e2 dc d4 | z2 d2 d2 d2 | A2 B2 G2 d2 | %8
w: Du grand plai-|sir _ _ _|_ que le cueur|a re- * * *||* * * ceu,|au lieu sans|plus où il faict|
 e2 d2 f4 | d6 cB | c4 d2 e2 | f4 d2 g2 | f2 e2 d3 c/B/ | A2 G2 z4 | z2 g2 f2 e2 | d2 B2 e2 d2 | %16
w: re- si den-|||* ce, en|doibt il es- tr'es- *|loi- gné,|en doibt il|es- tre es- loi-|
 e2 d4 c2 | d2 c2 f4 | e4 d2 B2 | B2 B2 A2 d2- | d2 c2 d2 f2- | f2 e2 d4- | d4 z2 B2 | %23
w: gné, sans of-|fen- * *|* ce, ie|dis que non et|_ ne suys pas|_ de- ceu,|_ ie|
 B2 B2 A2 d2- | d2 c2 d2 f2- | f2 e2 d4 | d8 |] %27
w: dis que non et|_ ne suys pas|_ de- *|ceu.|
V:3
 z8 | z2 d4 d2 | d2 A4 G2 | B2 d2 cBAG | A4 G2 c2 | c2 c2 G2 B2- | B2 AG A2 d2 | e2 d2 c2 B2 | %8
w: |Du grand|plai- sir que|le cueur a _ _ _|re- ceu, au|lieu sans plus _|_ _ _ _ où|il faict re- si-|
 edcB c4 | B2 GA Bcde | fd e2 d2 cB | c4 B4- | B4 z2 d2 | c2 B2 A2 G2 | c4 F2 G2 | A2 G3 A B2- | %16
w: den- * * * *|||* ce,|_ en|doibt il es- tre|es- loi- gné|sans of- * fen-|
 BAAG/F/ G4 | A4 z2 c2 | c2 c2 G4 | d2 d2 d2 A2- | A2 G2 B2 d2 | cBAG A4 | G8 | d2 d2 d2 A2- | %24
w: |ce, ie|dis que non|et ne suys pas|_ _ _ _|* * * * de-|ceu,|ie dis que non|
 A2 G2 B2 d2 | cBAG A4 | G8 |] %27
w: _ et ne suys|pas _ _ _ de-|ceu.|
V:4
 z8 | G,4 G,2 G,2 | D,4 E,4 | D,2 G,,2 F,2 G,2 | D,4 z4 | z4 z2 G,2 | G,2 G,2 D,4 | %7
w: |Du grand plai-|sir que|le cueur a re-|ceu,|au|lieu sans plus,|
 z2 D,2 E,2 D,2 | C,2 B,,2 F,4 | B,,4 z2 B,2 | B,2 A,2 B,2 G,2 | F,4 B,,3 C, | D,2 E,2 B,,4 | %13
w: où il faict|re- si- den-|ce, où|il faict re- si-|den- * *|* * ce,|
 z4 z2 G,2 | F,2 E,2 D,2 C,2 | F,2 G,2 C,2 B,,2 | C,2 D,2 E,4 | D,2 F,2 F,2 F,2 | C,4 z2 G,2 | %19
w: en|doibt il es- tre|es- loi- gné sans|of- fen- *|ce, ie dis que|non, ie|
 G,2 G,2 D,4 | E,4 D,2 B,,2 | F,2 G,2 D,4 | G,4 z2 G,2 | G,2 G,2 D,4 | E,4 D,2 B,,2 | F,2 G,2 D,4 | %26
w: dis que non|et ne suys|pas- * de-|ceu, ie|dis que non|et ne suys|pas- * de-|
 G,8 |] %27
w: ceu.|

